X:40
T:The Annie J Hornpipe
C:Roy Watrous, 1992
S:The Watrous Book, 1992
M:2/4
L:1/16
Q:1/4=90
K:D
%%MIDI program 72
%%MIDI transpose 8
%%MIDI ratio 3 1
AG|F2A2 d2df|edcB A2AG|FAdf gfed|e2b2 a2AG|F2A2 d2df|
edcB A2ef|gbag fedc|d2d2 d2::cd|edef e2ef|gfgb a2fg|aAgA fAeA|
dfed cBAG|F2A2 d2df|edcB A2ef|gbag fedc|d2d2 d2:|]

